epam-assets/icon-sources/18/internal-logo/compensation.svg

<svg width="18" height="18" viewBox="0 0 18 18" fill="none" xmlns="http://www.w3.org/2000/svg">
<g id="18/internal-logo/compensation">
<path id="icon" fill-rule="evenodd" clip-rule="evenodd" d="M16.5 9.32023C16.5 11.9391 15.375 13.8848 13.5 15.3998C12.75 12.7487 12.0001 10.4763 12.0001 10.4763L10.5001 10.855L9.37508 7.44647V5.93156L12.0001 5.1741L8.62509 3.65919V7.44647L6.75011 10.0976L6.37512 11.6125L4.87513 12.7487L3.6939 14.6783C1.29576 12.2536 0.808409 8.50471 2.50554 5.53698C4.20266 2.56924 7.66139 1.12212 10.9394 2.00828C14.2173 2.89444 16.4978 5.89308 16.5 9.32023ZM11.2501 11.2337L12.4313 16.089C12.3113 16.1288 12.1913 16.2093 12.0722 16.25L10.8751 11.9912L9.37508 12.3699L9.00009 10.0976L8.2501 10.855L7.8751 12.7487L5.76856 13.5904L4.81138 15.6052C4.67188 15.52 4.53843 15.4251 4.41201 15.3212L5.60919 13.1056L7.5001 12.3699L7.8751 10.4763L9.00009 8.96138L9.75008 11.6125L11.2501 11.2337Z" fill="#6C6F80"/>
</g>
</svg>

<svg xmlns="http://www.w3.org/2000/svg" width="18" height="18" fill="none" viewBox="0 0 18 18">
  <path fill="#6C6F80" fill-rule="evenodd" d="M16.5 9.32c0 2.62-1.125 4.565-3 6.08-.75-2.651-1.5-4.924-1.5-4.924l-1.5.379-1.125-3.409V5.932L12 5.174 8.625 3.66v3.787L6.75 10.098l-.375 1.514-1.5 1.137-1.181 1.93a7.631 7.631 0 0 1-1.188-9.142c1.697-2.968 5.155-4.415 8.433-3.529 3.278.886 5.559 3.885 5.561 7.312Zm-5.25 1.914 1.181 4.855c-.12.04-.24.12-.359.161l-1.197-4.259-1.5.379L9 10.098l-.75.757-.375 1.894-2.106.841-.958 2.015a3.512 3.512 0 0 1-.399-.284l1.197-2.215L7.5 12.37l.375-1.894L9 8.961l.75 2.652 1.5-.38Z" clip-rule="evenodd"/>
</svg>
